polaris-icons/icons/new-icons/BalanceMajor.svg

<svg width="20" height="20" viewBox="0 0 20 20" fill="none" xmlns="http://www.w3.org/2000/svg">
<path fill-rule="evenodd" clip-rule="evenodd" d="M5.75 5C5.33579 5 5 5.33579 5 5.75V6.25H12V5.75C12 5.33579 11.6642 5 11.25 5H5.75ZM3.5 5.75V6.25V7.75V14.25C3.5 15.4926 4.50736 16.5 5.75 16.5H14.25C15.4926 16.5 16.5 15.4926 16.5 14.25V13.2501C16.8036 13.022 17 12.659 17 12.25V10.25C17 9.84105 16.8036 9.47796 16.5 9.24991V8.5C16.5 7.25736 15.4926 6.25 14.25 6.25H13.5V5.75C13.5 4.50736 12.4926 3.5 11.25 3.5H5.75C4.50736 3.5 3.5 4.50736 3.5 5.75ZM15.5 10.5H11.75V12H15.5V10.5ZM15 9V8.5C15 8.08579 14.6642 7.75 14.25 7.75H13.5H5V14.25C5 14.6642 5.33579 15 5.75 15H14.25C14.6642 15 15 14.6642 15 14.25V13.5H11.5C10.8096 13.5 10.25 12.9404 10.25 12.25V10.25C10.25 9.55964 10.8096 9 11.5 9H15Z" fill="#4A4A4A"/>
</svg>

<svg viewBox="0 0 20 20" xmlns="http://www.w3.org/2000/svg"><path fill-rule="evenodd" d="M5.75 5a.75.75 0 0 0-.75.75v.5h7v-.5a.75.75 0 0 0-.75-.75h-5.5Zm-2.25.75v8.5a2.25 2.25 0 0 0 2.25 2.25h8.5a2.25 2.25 0 0 0 2.25-2.25v-1c.304-.228.5-.591.5-1v-2c0-.409-.196-.772-.5-1v-.75a2.25 2.25 0 0 0-2.25-2.25h-.75v-.5a2.25 2.25 0 0 0-2.25-2.25h-5.5a2.25 2.25 0 0 0-2.25 2.25Zm12 4.75h-3.75v1.5h3.75v-1.5Zm-.5-1.5v-.5a.75.75 0 0 0-.75-.75h-9.25v6.5c0 .414.336.75.75.75h8.5a.75.75 0 0 0 .75-.75v-.75h-3.5c-.69 0-1.25-.56-1.25-1.25v-2c0-.69.56-1.25 1.25-1.25h3.5Z" fill="#5C5F62"/></svg>
